X:1
T: Miss Rona McLachlan's Jig
C:Bruce Shawyer (adapted from a Reel by Webster Craig)
R:Jig
Q:180
K:A
M:6/8
L:1/16
|:e2|a4a2 e2d2c2|f4f2 d4B2|A2c2e2 a2b2a2|g4e2 e2f2g2|
a4a2 e2d2c2|f4f2 d4B2|A2G2A2 B2c2d2|c4A2 A4e2|
c2d2e2 a4g2|f2g2a2 e4c2|A2c2e2 a2b2a2|g4e2 e4c2|
d2e2f2 B2c2d2|c2e2a2 e4c2|A2G2A2 B2c2d2|c4A2A4:|
